!!!!SEGMENT: pl-sa--138-a-iii-38--001-001_luna-georgius--beatus-vir-beatus-vir.krn
!!!cenid: 17xx:479
!!!COM: Luna, Georgius
!!!COM-rismID: pe41010079
!!!CDT:
!!!CNT:
!!!OPR: Beatus vir
!!!OTL: Beatus vir
!!!OMV: 001
!!!PDT: 1760
!!!AGN: Sacred
!!!YEC: Copyright 2022 Narodowy Instytut Fryderyka Chopina (https://polishscores.org)
!!!YEM: License CC-BY-4.0 (https://creativecommons.org/licenses/by/4.0)
!!!SMS-siglum: PL-SA
!!!SMS-shelfmark: 138/A III 38
!!!SMS-shelfwork: 001-001 M
!!!SMS-variant:
!!!SMS-altvar:
!!!NIFC-rismSourceID: 1001030074
!!!NIFC-rismChildID: 1001030074
!!!NIFC-islandoraID: none
!!!URL-pdf-islandora:
!!!URL-scan: https://bc.bdsandomierz.pl/dlibra/publication/1495/edition/1463/content @EN{Scan in the Sandomierz Diocese Digital Library} @PL{Skany w portalu Cyfrowa Biblioteka Diecezjalna w Sandomierzu}
!!!IIIF:
!!!ONB-nifc: UWAGA: części: Beatus vir, Dispersit, Gloria Patri. UWAGA: brak partii violino primo
!!!AIN: 2 clrno 2 oboe 1 organ 1 soprn 1 tenor 2 violn
!!!OMD:
!!!OMD-mod: Allegro
!!!key: C
**kern	**dynam	**kern	**dynam	**kern	**kern	**text	**kern	**text	**kern	**kern	**kern	**kern
*part9	*part9	*part8	*part8	*part7	*part6	*part6	*part5	*part5	*part4	*part3	*part2	*part1
*staff9	*staff9	*staff8	*staff8	*staff7	*staff6	*staff6	*staff5	*staff5	*staff4	*staff3	*staff2	*staff1
*ICklav	*	*ICstr	*	*ICstr	*ICvox	*	*ICvox	*	*ICbras	*ICbras	*ICww	*ICww
*Iorgan	*	*Ivioln	*	*Ivioln	*Itenor	*	*Isoprn	*	*Iclrno	*Iclrno	*Ioboe	*Ioboe
*I"Fondamento.	*	*I"Violino Secundo.	*	*I"Violino I	*I"[Tenore]	*	*I"Canto.	*	*I"Clarino Secundo.	*I"Clarino Primo.	*I"Oböa Secunda	*I"Oböa Prima.
*mI"Fundamento	*	*mI"Violino II	*	*mI"Violino I	*mI"Tenore	*	*mI"Soprano	*	*mI"Clarino II	*mI"Clarino I	*mI"Oboe II	*mI"Oboe I
*I'bc	*	*I'vl 2	*	*I'vl 1	*I'T	*	*I'S	*	*I'clno 2	*I'clno 1	*I'ob 2	*I'ob 1
!	!	!	!	!LO:MO:null:mod=*tacet	!	!	!	!	!	!	!	!
*	*	*	*	*null	*	*	*	*	*	*	*	*
*clefF4	*	*clefG2	*	*clefG2	*clefC4	*	*clefC1	*	*clefG2	*clefG2	*clefG2	*clefG2
*	*	*	*	*	*mclefGv2	*	*mclefG2	*	*	*	*	*
*k[]	*	*k[]	*	*k[]	*k[]	*	*k[]	*	*k[]	*k[]	*k[]	*k[]
*C:	*	*C:	*	*C:	*C:	*	*C:	*	*C:	*C:	*C:	*C:
*M2/4	*	*M2/4	*	*M2/4	*M2/4	*	*M2/4	*	*M2/4	*M2/4	*M2/4	*M2/4
!LO:TX:a:Bi:mod= :t=Allo&colon;	!	!LO:TX:a:Bi:mod= :t=Allo&colon;	!	!	!LO:TX:a:Bi:mod= :t=Allo	!	!LO:TX:a:Bi:mod= :t=Allo	!	!LO:TX:a:B:mod= :t=Allo:	!LO:TX:a:B:mod= :t=Allo	!LO:TX:a:B:mod= :t=Allo	!LO:TX:a:B:mod= :t=Allo:
!LO:TX:a:i:mod= :t=Beatus.	!	!LO:TX:a:i:mod= :t=Beatus.	!	!LO:TX:t=P:problem=zgodnie z RISM "vl 1 part missing"	!LO:TX:a:i:mod= :t=Beatus	!	!	!	!LO:TX:a:i:mod= :t=Beatus&colon;	!LO:TX:a:i:mod= :t=Beatus&colon;	!LO:TX:a:i:mod= :t=Beatus	!LO:TX:a:i:mod= :t=Beatus
8r	.	8gg\	.	8ryy	8r	.	8r	.	8r	8r	8gg\	8gg\
=1	=1	=1	=1	=1	=1	=1	=1	=1	=1	=1	=1	=1
!LO:TX:t=P:problem=mixed beam	!	!	!	!	!LO:N:vis=00	!	!LO:N:vis=00	!	!	!	!	!
8C\L	.	4cc\	.	2ryy	0r	.	0r	.	4ee\	4gg\	4cc\	4cc\
8E\	.	.	.	.	.	.	.	.	.	.	.	.
8F\	.	4aa\	.	.	.	.	.	.	4ff\	4aa\	4aa\	4aa\
8FF/J	.	.	.	.	.	.	.	.	.	.	.	.
=2	=2	=2	=2	=2	=2	=2	=2	=2	=2	=2	=2	=2
.	.	8qqaa/	.	.	.	.	.	.	.	.	8qqaa/	8qqaa/
8C\L	.	4.gg\	.	2ryy	.	.	.	.	4ee\	4gg\	4.gg\	4.gg\
8D\	.	.	.	.	.	.	.	.	.	.	.	.
8E\	.	.	.	.	.	.	.	.	8r	8r	.	.
8G\J	.	8ff\	.	.	.	.	.	.	8dd\	8ff\	8ff\	8ff\
=3	=3	=3	=3	=3	=3	=3	=3	=3	=3	=3	=3	=3
!LO:TX:t=P:problem=mixed beam	!	!	!	!	!	!	!	!	!	!	!	!
8c\L	.	8ee\L	.	2ryy	.	.	.	.	4cc\	4ee\	8ee\L	8ee\L
8F\	.	16dd\L	.	.	.	.	.	.	.	.	16dd\L	16dd\L
.	.	16cc\JJ	.	.	.	.	.	.	.	.	16cc\JJ	16cc\JJ
8G\	.	16b\LL	.	.	.	.	.	.	8r	8r	16b\LL	16b/LL
.	.	16a\	.	.	.	.	.	.	.	.	16a\	16a/
8GG/J	.	16g\	.	.	.	.	.	.	8g\	8dd\	16g\	16g/
.	.	16f\JJ	.	.	.	.	.	.	.	.	16f\JJ	16f/JJ
=4	=4	=4	=4	=4	=4	=4	=4	=4	=4	=4	=4	=4
8C\L	.	4e/	.	2ryy	.	.	.	.	8cc\L	8ee\L	4e/	4e/
8D\	.	.	.	.	.	.	.	.	16cc\L	16ee\L	.	.
.	.	.	.	.	.	.	.	.	16cc\JJ	16ee\JJ	.	.
8E\	.	8r	.	.	.	.	.	.	8cc\L	8ee\L	8r	8r
8E\J	.	8cc\	.	.	.	.	.	.	8cc\J	8ee\J	8cc\	8cc\
=5	=5	=5	=5	=5	=5	=5	=5	=5	=5	=5	=5	=5
!	!	!	!	!	!LO:N:vis=00	!	!LO:N:vis=00	!	!	!	!	!
8F\L	.	16dd\LL	.	2ryy	0r	.	0r	.	4g/	4dd\	16dd\LL	16dd\LL
.	.	16b\	.	.	.	.	.	.	.	.	16b\	16b\
8E\	.	16cc\	.	.	.	.	.	.	.	.	16cc\	16cc\
.	.	16ee\JJ	.	.	.	.	.	.	.	.	16ee\JJ	16ee\JJ
8F\	.	16dd\LL	.	.	.	.	.	.	4r	4r	16dd\LL	16dd\LL
.	.	16b\	.	.	.	.	.	.	.	.	16b\	16b\
8E\J	.	16cc\	.	.	.	.	.	.	.	.	16cc\	16cc\
.	.	16gg\JJ	.	.	.	.	.	.	.	.	16gg\JJ	16gg\JJ
=6	=6	=6	=6	=6	=6	=6	=6	=6	=6	=6	=6	=6
!	!	!	!	!	!	!	!	!	!	!	!	!LO:TX:t=P:problem=przednutka zasłonięta pieczęcią
.	.	8qqgg/	.	.	.	.	.	.	.	.	8qqgg/	8qqgg/
!LO:TX:t=P:problem=mixed beam	!	!	!	!	!	!	!	!	!	!	!	!
8D\L	.	4ff\	.	2ryy	.	.	.	.	4dd\	4ff\	4ff\	4ff\
8GG/	.	.	.	.	.	.	.	.	.	.	.	.
8C/	.	4ee\	.	.	.	.	.	.	4cc\	4ee\	4ee\	8ee\L
8E/J	.	.	.	.	.	.	.	.	.	.	.	8cc\J
=7	=7	=7	=7	=7	=7	=7	=7	=7	=7	=7	=7	=7
8F\L	.	16dd\LL	.	2ryy	.	.	.	.	4g/	4dd\	16dd\LL	16dd\LL
.	.	16b\	.	.	.	.	.	.	.	.	16b\	16b\
8E\	.	16cc\	.	.	.	.	.	.	.	.	16cc\	16cc\
.	.	16ee\JJ	.	.	.	.	.	.	.	.	16ee\JJ	16ee\JJ
8F\	.	16dd\LL	.	.	.	.	.	.	4r	4r	16dd\LL	16dd\LL
.	.	16b\	.	.	.	.	.	.	.	.	16b\	16b\
8E\J	.	16cc\	.	.	.	.	.	.	.	.	16cc\	16cc\
.	.	16gg\JJ	.	.	.	.	.	.	.	.	16gg\JJ	16gg\JJ
=8	=8	=8	=8	=8	=8	=8	=8	=8	=8	=8	=8	=8
.	.	8qqgg/	.	.	.	.	.	.	.	.	8qqgg/	8qqgg/
!LO:TX:t=P:problem=mixed beam	!	!	!	!	!	!	!	!	!	!	!	!
8D\L	.	4ff\	.	2ryy	.	.	.	.	4dd\	4ff\	4ff\	4ff\
8GG/	.	.	.	.	.	.	.	.	.	.	.	.
8C/	.	4ee\	.	.	.	.	.	.	4cc\	4ee\	4ee\	4ee\
8E/J	.	.	.	.	.	.	.	.	.	.	.	.
=9	=9	=9	=9	=9	=9	=9	=9	=9	=9	=9	=9	=9
!	!	!	!	!	!LO:N:vis=00	!	!LO:N:vis=00	!	!	!	!	!
8F\L	.	16aa\LL	.	2ryy	0r	.	0r	.	4ff\	4aa\	16aa\LL	16aa\LL
.	.	16ff\	.	.	.	.	.	.	.	.	16ff\	16ff\
8F\	.	16cc#X\	.	.	.	.	.	.	.	.	16cc#X\	16cc#X\
.	.	16dd\JJ	.	.	.	.	.	.	.	.	16dd\JJ	16dd\JJ
8F\	.	16dd\LL	.	.	.	.	.	.	4r	4r	16dd\LL	16dd\LL
.	.	16ff\	.	.	.	.	.	.	.	.	16ff\	16ff\
8F\J	.	16aa\	.	.	.	.	.	.	.	.	16aa\	16aa\
.	.	16ff\JJ	.	.	.	.	.	.	.	.	16ff\JJ	16ff\JJ
=10	=10	=10	=10	=10	=10	=10	=10	=10	=10	=10	=10	=10
8E\L	.	16gg\LL	.	2ryy	.	.	.	.	4ee\	4gg\	16gg\LL	16gg\LL
.	.	16ee\	.	.	.	.	.	.	.	.	16ee\	16ee\
8E\	.	16b\	.	.	.	.	.	.	.	.	16b\	16b\
.	.	16ccn\JJ	.	.	.	.	.	.	.	.	16ccn\JJ	16ccn\JJ
8E\	.	16cc\LL	.	.	.	.	.	.	4r	4r	16cc\LL	16cc\LL
.	.	16ee\	.	.	.	.	.	.	.	.	16ee\	16ee\
8E\J	.	16gg\	.	.	.	.	.	.	.	.	16gg\	16gg\
.	.	16ee\JJ	.	.	.	.	.	.	.	.	16ee\JJ	16ee\JJ
=11	=11	=11	=11	=11	=11	=11	=11	=11	=11	=11	=11	=11
8D\L	.	16ff\LL	.	2ryy	.	.	.	.	4dd\	4ff\	16ff\LL	16ff\LL
.	.	16dd\	.	.	.	.	.	.	.	.	16dd\	16dd\
8D\	.	16a\	.	.	.	.	.	.	.	.	16a\	16a\
.	.	16b\JJ	.	.	.	.	.	.	.	.	16b\JJ	16b\JJ
8G\	.	16b\LL	.	.	.	.	.	.	4r	4r	16b\LL	16b\LL
.	.	16dd\	.	.	.	.	.	.	.	.	16dd\	16dd\
8G\J	.	16ff\	.	.	.	.	.	.	.	.	16ff\	16ff\
.	.	16dd\JJ	.	.	.	.	.	.	.	.	16dd\JJ	16dd\JJ
=12	=12	=12	=12	=12	=12	=12	=12	=12	=12	=12	=12	=12
!LO:TX:t=P:problem=mixed beam	!	!	!	!	!	!	!	!	!	!	!	!
8C\L	.	8ee\L	.	2ryy	.	.	.	.	8cc\L	8ee\L	8ee\L	8ee\L
8E\	.	8cc\	.	.	.	.	.	.	8cc\	8ee\	8cc\	8cc\
8G\	.	8dd\	.	.	.	.	.	.	8g\	8dd\	8dd\	8dd\
8GG/J	.	8b\J	.	.	.	.	.	.	8g\J	8dd\J	8b\J	8b\J
!	!	!LO:LB:g=original	!	!	!	!	!	!	!	!	!LO:LB:g=original	!LO:LB:g=original
=13	=13	=13	=13	=13	=13	=13	=13	=13	=13	=13	=13	=13
!	!	!	!	!	!LO:N:vis=00	!	!	!	!	!	!	!
4C/	.	4cc\	.	2ryy	0r	.	4r	.	4cc\	4ee\	4cc\	4cc\
4r	.	4r	.	.	.	.	8r	.	4r	4r	4r	4r
!	!	!	!	!	!	!	!LO:TX:a:i:mod= :t=Solo.	!	!	!	!	!
.	.	.	.	.	.	.	8gg\	Be-	.	.	.	.
!LO:LB:g=original	!	!	!	!	!	!	!	!	!	!	!	!
=14	=14	=14	=14	=14	=14	=14	=14	=14	=14	=14	=14	=14
!LO:TX:t=P:problem=mixed beam	!LO:DY:a:t=pia&colon;	!LO:N:vis=00	!	!	!	!	!	!LO:N:vis=00	!LO:N:vis=00	!LO:N:vis=00	!LO:N:vis=00	!LO:N:vis=00
8C\L	p	0r	.	2ryy	.	.	4cc\	-a-	0r	0r	0r	0r
8E\	.	.	.	.	.	.	.	.	.	.	.	.
8F\	.	.	.	.	.	.	4aa\	-tus	.	.	.	.
8FF/J	.	.	.	.	.	.	.	.	.	.	.	.
=15	=15	=15	=15	=15	=15	=15	=15	=15	=15	=15	=15	=15
.	.	.	.	.	.	.	8qqaa/	.	.	.	.	.
!	!	!	!	!	!	!	!	!LO:SIC:s=vir	!	!	!	!
8C\L	.	.	.	2ryy	.	.	4.gg\	Vir	.	.	.	.
8D\	.	.	.	.	.	.	.	.	.	.	.	.
8E\	.	.	.	.	.	.	.	.	.	.	.	.
8G\J	.	.	.	.	.	.	8ff\	qui	.	.	.	.
=16	=16	=16	=16	=16	=16	=16	=16	=16	=16	=16	=16	=16
!LO:TX:t=P:problem=mixed beam	!	!	!	!	!	!	!	!	!	!	!	!
8c\L	.	.	.	2ryy	.	.	8ee\	ti-	.	.	.	.
8F\	.	.	.	.	.	.	16dd\LL	-met	.	.	.	.
.	.	.	.	.	.	.	16cc\JJ	.	.	.	.	.
8G\	.	.	.	.	.	.	16b\LL	Do-	.	.	.	.
.	.	.	.	.	.	.	16a\JJ	.	.	.	.	.
8GG/J	.	.	.	.	.	.	16g\LL	-mi-	.	.	.	.
.	.	.	.	.	.	.	16f\JJ	.	.	.	.	.
=17	=17	=17	=17	=17	=17	=17	=17	=17	=17	=17	=17	=17
!	!	!	!	!	!LO:N:vis=00	!	!	!	!	!	!	!
8C\L	.	.	.	2ryy	0r	.	4e/	-num	.	.	.	.
8D\	.	.	.	.	.	.	.	.	.	.	.	.
8E\	.	.	.	.	.	.	8r	.	.	.	.	.
8E\J	.	.	.	.	.	.	8cc\	in	.	.	.	.
=18	=18	=18	=18	=18	=18	=18	=18	=18	=18	=18	=18	=18
!	!	!LO:N:vis=00	!	!	!	!	!	!	!LO:N:vis=00	!LO:N:vis=00	!LO:N:vis=00	!LO:N:vis=00
8F\L	.	0r	.	2ryy	.	.	16dd\LL	man-	0r	0r	0r	0r
.	.	.	.	.	.	.	16b\JJ	.	.	.	.	.
8E\	.	.	.	.	.	.	8cc\	.	.	.	.	.
8F\	.	.	.	.	.	.	16dd\LL	-da-	.	.	.	.
.	.	.	.	.	.	.	16b\JJ	.	.	.	.	.
8E\J	.	.	.	.	.	.	16cc\LL	-tis	.	.	.	.
.	.	.	.	.	.	.	16gg\JJ	.	.	.	.	.
=19	=19	=19	=19	=19	=19	=19	=19	=19	=19	=19	=19	=19
8D/L	.	.	.	2ryy	.	.	4ff\	e-	.	.	.	.
8GG/	.	.	.	.	.	.	.	.	.	.	.	.
8C/	.	.	.	.	.	.	4ee\	-jus	.	.	.	.
8E/J	.	.	.	.	.	.	.	.	.	.	.	.
=20	=20	=20	=20	=20	=20	=20	=20	=20	=20	=20	=20	=20
8F\L	.	.	.	2ryy	.	.	16dd\LL	in	.	.	.	.
.	.	.	.	.	.	.	16b\JJ	.	.	.	.	.
8E\	.	.	.	.	.	.	8cc\	man-	.	.	.	.
8F\	.	.	.	.	.	.	16dd\LL	-da-	.	.	.	.
.	.	.	.	.	.	.	16b\JJ	.	.	.	.	.
8E\J	.	.	.	.	.	.	16cc\LL	-tis	.	.	.	.
.	.	.	.	.	.	.	16gg\JJ	.	.	.	.	.
=21	=21	=21	=21	=21	=21	=21	=21	=21	=21	=21	=21	=21
!LO:TX:t=P:problem=mixed beam	!	!	!	!	!LO:N:vis=0	!	!	!	!	!	!	!
8D/L	.	.	.	2ryy	1r	.	4ff\	e-	.	.	.	.
8GG/	.	.	.	.	.	.	.	.	.	.	.	.
8C/	.	.	.	.	.	.	4ee\	-jus	.	.	.	.
8c\J	.	.	.	.	.	.	.	.	.	.	.	.
!	!	!	!	!	!	!	!LO:LB:g=original	!	!	!	!	!
=22	=22	=22	=22	=22	=22	=22	=22	=22	=22	=22	=22	=22
!	!	!	!	!	!	!	!	!	!LO:N:vis=0	!LO:N:vis=0	!	!
4F\	.	2r	.	2ryy	.	.	8dd\	vo-	1r	1r	2r	2r
.	.	.	.	.	.	.	8a\	-let	.	.	.	.
!LO:TX:t=P:problem=mixed beam	!	!	!	!	!	!	!	!	!	!	!	!
8G\L	.	.	.	.	.	.	4bt\	ni-	.	.	.	.
8GG/J	.	.	.	.	.	.	.	.	.	.	.	.
=23	=23	=23	=23	=23	=23	=23	=23	=23	=23	=23	=23	=23
!	!	!	!	!	!	!	!	!LO:SIC:s=-mis.	!	!	!	!
4C/	.	4r	.	2ryy	4r	.	4cc\	-mis	.	.	4r	4r
!	!	!LO:TX:a:i:mod= :t=Tutti	!	!	!	!	!LO:TX:a:i:mod= :t=Tut	!	!	!	!	!
4r	.	8r	.	.	8r	.	8r	.	.	.	8r	8r
!	!	!	!	!	!	!	!	!LO:SIC:s=Po-	!	!	!LO:TX:a:i:mod= :t=Tutti	!
.	.	8gg\	.	.	8e\	Po-	8gg\	po-	.	.	8gg\	8gg\
!	!	!	!	!	!	!	!	!	!LO:LB:g=original	!	!	!
=24	=24	=24	=24	=24	=24	=24	=24	=24	=24	=24	=24	=24
!LO:TX:t=P:problem=mixed beam	!	!	!	!	!	!	!	!	!	!	!	!
!LO:TX:a:i:mod= :t=Tutti&colon;	!	!	!	!	!	!	!	!	!	!	!	!
8C\L	.	4cc\	.	2ryy	4e\	-tens	4cc\	-tens	4ee\	4gg\	4cc\	4cc\
8E\	.	.	.	.	.	.	.	.	.	.	.	.
8F\	.	4aa\	.	.	4f\	in	4aa\	in	4ff\	4aa\	4aa\	4aa\
8FF/J	.	.	.	.	.	.	.	.	.	.	.	.
!	!	!	!	!	!	!	!	!	!	!LO:LB:g=original	!	!
=25	=25	=25	=25	=25	=25	=25	=25	=25	=25	=25	=25	=25
.	.	8qqaa/	.	.	.	.	.	.	.	.	8qqaa/	8qqaa/
8C\L	.	4.gg\	.	2ryy	8e\	ter-	8gg\	ter-	4ee\	4gg\	4.gg\	4.gg\
8D\	.	.	.	.	8e\	-ra	8gg\	-ra	.	.	.	.
8E\	.	.	.	.	8e\	e-	8gg\	e-	8r	8r	.	.
8G\J	.	8ff\	.	.	8d\	-rit	8ff\	-rit	8dd\	8ff\	8ff\	8ff\
=26	=26	=26	=26	=26	=26	=26	=26	=26	=26	=26	=26	=26
!LO:TX:t=P:problem=mixed beam	!	!	!	!	!	!	!	!LO:SIC:s=se-	!	!	!	!
8c\L	.	8ee\L	.	2ryy	8c\	se-	8ee\	Se-	4cc\	4ee\	8ee\L	8ee\L
8F\	.	16dd\L	.	.	16d\LL	-men	16dd\LL	-men	.	.	16dd\L	16dd\L
.	.	16cc\JJ	.	.	16e\JJ	.	16cc\JJ	.	.	.	16cc\JJ	16cc\JJ
8G\	.	16b\LL	.	.	4d\	e-	16b\LL	e-	8r	8r	16b\LL	16b\LL
.	.	16a\	.	.	.	.	16a\	.	.	.	16a\	16a\
8GG/J	.	16g\	.	.	.	.	16g\	.	8g/	8dd\	16g\	16g\
.	.	16f\JJ	.	.	.	.	16f\JJ	.	.	.	16f\JJ	16f\JJ
!	!	!	!	!	!LO:LB:g=original	!	!	!	!	!	!	!
=27	=27	=27	=27	=27	=27	=27	=27	=27	=27	=27	=27	=27
4C\	.	4e/	.	2ryy	4c\	-jus	4e/	-jus	4cc\	4ee\	4e/	4e/
8G\L	.	16b\LL	.	.	8B\	ge-	8dd\	ge-	8g/L	8dd\L	8b\L	8dd\L
.	.	16g\	.	.	.	.	.	.	.	.	.	.
8G\J	.	16b\	.	.	8B\	-ne-	8dd\	-ne-	8g/J	8dd\J	8b\J	8dd\J
.	.	16g\JJ	.	.	.	.	.	.	.	.	.	.
=28	=28	=28	=28	=28	=28	=28	=28	=28	=28	=28	=28	=28
8C\L	.	16cc\LL	.	2ryy	8c\	-ra-	8ee\	-ra-	8cc\L	8ee\L	16cc\LL	16ee\LL
.	.	16g\	.	.	.	.	.	.	.	.	16cc\	16ee\
8D\	.	16ee\	.	.	8c\	-ti-	8ee\	-ti-	16cc\L	16ee\L	16cc\	16ee\
.	.	16ee\JJ	.	.	.	.	.	.	16cc\JJ	16ee\JJ	16cc\JJ	16ee\JJ
8E\	.	16ee\LL	.	.	8c\	-o	8ee\	-o	8cc\L	8ee\L	16cc\LL	16ee\LL
.	.	16ee\	.	.	.	.	.	.	.	.	16cc\	16ee\
8F#X\J	.	16ee\	.	.	8c\	rec-	8ee\	rec-	8cc\J	8ee\J	16cc\	16ee\
.	.	16ee\JJ	.	.	.	.	.	.	.	.	16cc\JJ	16ee\JJ
!LO:LB:g=original	!	!	!	!	!	!	!	!	!	!	!	!
=29	=29	=29	=29	=29	=29	=29	=29	=29	=29	=29	=29	=29
8G\L	.	8dd\L	.	2ryy	8c\	-to-	8ee\	-to-	4g/	4dd\	8b\L	8dd\L
8A\	.	8b\J	.	.	8B\	-rum	8dd\	-rum	.	.	8g\J	8b\J
8B\	.	16b\LL	.	.	8r	.	8r	.	8e/L	8e/L	8b\L	8ee\L
.	.	16g#X\	.	.	.	.	.	.	.	.	.	.
8G#X\J	.	16b\	.	.	8G#X\	be-	8b\	be-	8e/J	8e/J	8b\J	8ee\J
.	.	16g#\JJ	.	.	.	.	.	.	.	.	.	.
=30	=30	=30	=30	=30	=30	=30	=30	=30	=30	=30	=30	=30
8A\L	.	16a\LL	.	2ryy	4A\	-ne-	4cc\	-ne-	8e/L	8e/L	16a\LL	16cc\LL
.	.	16cc\	.	.	.	.	.	.	.	.	16cc\	16a\
8B\	.	16cc\	.	.	.	.	.	.	16e/L	16e/L	16cc\	16aa\
.	.	16cc\JJ	.	.	.	.	.	.	16e/JJ	16e/JJ	16cc\JJ	16aa\JJ
8c\	.	16cc\LL	.	.	4A\	-di-	4cc\	-di-	8e/L	8e/L	16cc\LL	16aa\LL
.	.	16cc\	.	.	.	.	.	.	.	.	16cc\	16aa\
8d\J	.	16cc\	.	.	.	.	.	.	8e/J	8e/J	16cc\	16aa\
.	.	16cc\JJ	.	.	.	.	.	.	.	.	16cc\JJ	16aa\JJ
!	!	!	!	!	!	!	!LO:LB:g=original	!	!	!	!	!
=31	=31	=31	=31	=31	=31	=31	=31	=31	=31	=31	=31	=31
8e\L	.	8b\L	.	2ryy	8A\	-ce-	8cc\	ce-	4e/	4e/	8b\L	8gg#X\L
!	!	!	!	!	!	!	!	!	!	!	!LO:SIC:s=8g#	!
8E\	.	8g#X\J	.	.	8G#X\	-tur	8b\	-tur	.	.	8g#X\J	8ee\
!	!	!	!	!	!	!	!	!	!	!	!LO:SIC:s=8b	!
8G#X\	.	16b\LL	.	.	8r	.	8r	.	4r	4r	8b\L	8ee\
.	.	16g#X\	.	.	.	.	.	.	.	.	.	.
*	*	*	*	*	*	*ij	*	*	*	*	*	*
!	!	!	!	!	!	!	!LO:SIC:v:s=8g#	!	!	!	!	!
8E\J	.	16b\	.	.	8c\	be-	8g\	be-	.	.	8b\J	8ee\J
.	.	16g#\JJ	.	.	.	.	.	.	.	.	.	.
=32	=32	=32	=32	=32	=32	=32	=32	=32	=32	=32	=32	=32
8F\L	.	16a/LL	.	2ryy	4c\	-ne-	4a\	-ne-	8cc\L	8cc\L	16a/LL	16cc\LL
.	.	16a/	.	.	.	.	.	.	.	.	16a/	16cc\
8Gn\	.	16a/	.	.	.	.	.	.	16cc\L	16cc\L	16a/	16cc\
.	.	16a/JJ	.	.	.	.	.	.	16cc\JJ	16cc\JJ	16a/JJ	16cc\JJ
8A\	.	16a/LL	.	.	4c\	-di-	4a\	-di-	8cc\L	8cc\L	16a/LL	16cc\LL
.	.	16a/	.	.	.	.	.	.	.	.	16a/	16cc\
8B\J	.	16a/	.	.	.	.	.	.	8cc\J	8cc\J	16a/	16cc\
.	.	16a/JJ	.	.	.	.	.	.	.	.	16a/JJ	16cc\JJ
!	!	!LO:LB:g=original	!	!	!	!	!	!	!	!	!	!
=33	=33	=33	=33	=33	=33	=33	=33	=33	=33	=33	=33	=33
!LO:TX:t=P:problem=mixed beam	!	!LO:SIC:s=16gLL	!	!	!	!	!	!	!	!	!	!
8c\L	.	16gn/LL	.	2ryy	8c\	-ce-	8a\	-ce-	4cc\	4cc\	16gn/LL	16cc\LL
.	.	16g/	.	.	.	.	.	.	.	.	16g/	16cc\
8C/	.	16g/	.	.	8c\	-tur	8g\	-tur	.	.	16g/	16cc\
*	*	*	*	*	*	*Xij	*	*	*	*	*	*
.	.	16g/JJ	.	.	.	.	.	.	.	.	16g/JJ	16cc\JJ
8E/	.	16g/LL	.	.	4r	.	4r	.	4r	4r	16g/LL	16cc\LL
.	.	16g/	.	.	.	.	.	.	.	.	16g/	16cc\
8C/J	.	16g/	.	.	.	.	.	.	.	.	16g/	16cc\
.	.	16g/JJ	.	.	.	.	.	.	.	.	16g/JJ	16cc\JJ
!	!	!	!	!	!LO:LB:g=original	!	!	!	!	!	!LO:LB:g=original	!LO:LB:g=original
=34	=34	=34	=34	=34	=34	=34	=34	=34	=34	=34	=34	=34
*	*	*	*	*	*2\right	*	*2\right	*	*	*	*	*
8B\L	.	16dd\LL	.	2ryy	2B\	be-	2dd\	be-	2r	2r	16dd\LL	16b\LL
.	.	16dd\	.	.	.	.	.	.	.	.	16dd\	16bb\
8A\	.	16dd\	.	.	.	.	.	.	.	.	16dd\	16bb\
.	.	16dd\JJ	.	.	.	.	.	.	.	.	16dd\JJ	16bb\JJ
8G#X\	.	16dd\LL	.	.	.	.	.	.	.	.	16dd\LL	16bb\LL
.	.	16dd\	.	.	.	.	.	.	.	.	16dd\	16bb\
8E\J	.	16dd\	.	.	.	.	.	.	.	.	16dd\	16bb\
.	.	16dd\JJ	.	.	.	.	.	.	.	.	16dd\JJ	16bb\JJ
=35	=35	=35	=35	=35	=35	=35	=35	=35	=35	=35	=35	=35
!LO:TX:t=P:problem=mixed beam	!	!	!	!	!	!	!	!	!	!	!	!
8A\L	.	8cc\L	.	2ryy	8A\	-ne-	8cc\	-ne-	8e/L	8e/L	8cc\L	8aa\L
8D\	.	8dd\J	.	.	8e\	-di-	16b\LL	-di-	16e/L	16e/L	8dd\J	8bb\J
.	.	.	.	.	.	.	16a\JJ	.	16e/JJ	16e/JJ	.	.
8E\	.	4b\	.	.	4e\	-ce-	4bt\	-ce-	8e/L	8e/L	4b\	4gg#X\
8EE/J	.	.	.	.	.	.	.	.	8e/J	8e/J	.	.
=36	=36	=36	=36	=36	=36	=36	=36	=36	=36	=36	=36	=36
!LO:TX:a:i:mod= :t=Solo.	!	!	!	!	!	!LO:SIC:s=-tur.	!	!LO:SIC:s=-tur.	!	!	!	!
8AA/L	.	4cc\	.	2ryy	4e\	-tur	4a\	-tur	4e/	4e/	4cc\	4aa\
8BB/	.	.	.	.	.	.	.	.	.	.	.	.
8C/	.	8r	.	.	4r	.	4r	.	4r	4r	8r	8r
!	!	!LO:TX:a:i:mod= :t=Solo.	!	!	!	!	!	!	!	!	!	!
8AA/J	.	8ee\	.	.	.	.	.	.	.	.	8ee\	8ee\
!	!	!	!	!	!	!	!	!	!LO:LB:g=original	!	!	!
=37	=37	=37	=37	=37	=37	=37	=37	=37	=37	=37	=37	=37
!	!	!	!	!	!LO:N:vis=00	!	!LO:N:vis=00	!	!LO:N:vis=00	!LO:N:vis=00	!	!
8D\L	.	16ff\LL	.	2ryy	0r	.	0r	.	0r	0r	16ff\LL	16ff\LL
.	.	16dd\	.	.	.	.	.	.	.	.	16dd\	16dd\
8D\	.	16a\	.	.	.	.	.	.	.	.	16a\	16a\
.	.	16b\JJ	.	.	.	.	.	.	.	.	16b\JJ	16b\JJ
8D\	.	16b\LL	.	.	.	.	.	.	.	.	16b\LL	16b\LL
.	.	16dd\	.	.	.	.	.	.	.	.	16dd\	16dd\
8D\J	.	16ff\	.	.	.	.	.	.	.	.	16ff\	16ff\
.	.	16dd\JJ	.	.	.	.	.	.	.	.	16dd\JJ	16dd\JJ
=38	=38	=38	=38	=38	=38	=38	=38	=38	=38	=38	=38	=38
!LO:SIC:s=8CL	!	!	!	!	!	!	!	!	!	!	!	!
8Cn/L	.	16ee\LL	.	2ryy	.	.	.	.	.	.	16ee\LL	16ee\LL
.	.	16cc\	.	.	.	.	.	.	.	.	16cc\	16cc\
8C/	.	16g#X\	.	.	.	.	.	.	.	.	16g#X\	16g#X\
.	.	16a\JJ	.	.	.	.	.	.	.	.	16a\JJ	16a\JJ
8C/	.	16a\LL	.	.	.	.	.	.	.	.	16a\LL	16a\LL
.	.	16cc\	.	.	.	.	.	.	.	.	16cc\	16cc\
8C/J	.	16ee\	.	.	.	.	.	.	.	.	16ee\	16ee\
.	.	16cc\JJ	.	.	.	.	.	.	.	.	16cc\JJ	16cc\JJ
=39	=39	=39	=39	=39	=39	=39	=39	=39	=39	=39	=39	=39
8BB/L	.	16dd\LL	.	2ryy	.	.	.	.	.	.	16dd\LL	16dd\LL
.	.	16b\	.	.	.	.	.	.	.	.	16b\	16b\
8BB/	.	16f#X\	.	.	.	.	.	.	.	.	16f#X\	16f#X\
.	.	16g#X\JJ	.	.	.	.	.	.	.	.	16g#X\JJ	16g#X\JJ
8E/	.	16g#\LL	.	.	.	.	.	.	.	.	16g#\LL	16g#\LL
.	.	16b\	.	.	.	.	.	.	.	.	16b\	16b\
8E/J	.	16dd\	.	.	.	.	.	.	.	.	16dd\	16dd\
.	.	16b\JJ	.	.	.	.	.	.	.	.	16b\JJ	16b\JJ
=40	=40	=40	=40	=40	=40	=40	=40	=40	=40	=40	=40	=40
8AA/L	.	8cc\L	.	2ryy	.	.	.	.	.	.	8cc\L	8cc\L
8C/	.	8a\	.	.	.	.	.	.	.	.	8a\	8a\
8E/	.	8b\	.	.	.	.	.	.	.	.	8b\	8b\
8EE/J	.	8g#X\J	.	.	.	.	.	.	.	.	8g#X\J	8g#X\J
=41	=41	=41	=41	=41	=41	=41	=41	=41	=41	=41	=41	=41
!	!	!	!	!	!LO:TX:a:i:mod= :t=Solo	!	!LO:N:vis=00	!	!LO:N:vis=00	!LO:N:vis=00	!	!
4AA/	.	4a/	.	2ryy	4r	.	0r	.	0r	0r	4a/	4a/
!	!	!	!	!	!	!LO:SIC:s=Glo-	!	!	!	!	!	!
4r	.	4r	.	.	8e\	glo-	.	.	.	.	4r	4r
.	.	.	.	.	8e\	-ri-	.	.	.	.	.	.
=42	=42	=42	=42	=42	=42	=42	=42	=42	=42	=42	=42	=42
!	!LO:DY:a:rj:t=pia&colon;	!LO:N:vis=00	!	!	!	!	!	!	!	!	!LO:N:vis=00	!LO:N:vis=00
8A\L	p	0r	.	2ryy	4A\	-a	.	.	.	.	0r	0r
8c\	.	.	.	.	.	.	.	.	.	.	.	.
8d\	.	.	.	.	8f\	et	.	.	.	.	.	.
8G#X\J	.	.	.	.	8f\	di-	.	.	.	.	.	.
=43	=43	=43	=43	=43	=43	=43	=43	=43	=43	=43	=43	=43
.	.	.	.	.	8qqf/	.	.	.	.	.	.	.
8A\L	.	.	.	2ryy	8.e\	-vi-	.	.	.	.	.	.
8B\	.	.	.	.	.	.	.	.	.	.	.	.
.	.	.	.	.	16e\	-ti-	.	.	.	.	.	.
8c\	.	.	.	.	8e\	-ae	.	.	.	.	.	.
8E\J	.	.	.	.	8d\	in	.	.	.	.	.	.
!LO:LB:g=original	!	!	!	!	!	!	!	!	!	!	!	!
=44	=44	=44	=44	=44	=44	=44	=44	=44	=44	=44	=44	=44
!LO:TX:t=P:problem=mixed beam	!	!	!	!	!	!LO:SIC:s=do-	!	!	!	!	!	!
8A\L	.	.	.	2ryy	8c\	Do-	.	.	.	.	.	.
8D\	.	.	.	.	16B\LL	-mo	.	.	.	.	.	.
.	.	.	.	.	16A\JJ	.	.	.	.	.	.	.
8E\	.	.	.	.	16G#X\LL	e-	.	.	.	.	.	.
.	.	.	.	.	16f\	.	.	.	.	.	.	.
8EE/J	.	.	.	.	16e\	.	.	.	.	.	.	.
.	.	.	.	.	16d\JJ	.	.	.	.	.	.	.
!	!	!	!	!	!LO:LB:g=original	!	!	!	!	!	!	!
=45	=45	=45	=45	=45	=45	=45	=45	=45	=45	=45	=45	=45
!	!	!	!	!	!	!	!LO:N:vis=00	!	!LO:N:vis=00	!LO:N:vis=00	!	!
4AA/	.	.	.	2ryy	16c\LL	.	0r	.	0r	0r	.	.
.	.	.	.	.	16B\JJ	.	.	.	.	.	.	.
.	.	.	.	.	8A\	-jus	.	.	.	.	.	.
8r	.	.	.	.	8c\	et	.	.	.	.	.	.
8E\	.	.	.	.	8c\	jus-	.	.	.	.	.	.
=46	=46	=46	=46	=46	=46	=46	=46	=46	=46	=46	=46	=46
!	!	!LO:N:vis=00	!	!	!	!	!	!	!	!	!LO:N:vis=00	!LO:N:vis=00
8F\L	.	0r	.	2ryy	16d\LL	-ti-	.	.	.	.	0r	0r
.	.	.	.	.	16B\J	.	.	.	.	.	.	.
8E\	.	.	.	.	8c\J	.	.	.	.	.	.	.
8F\	.	.	.	.	16e\LL	-ti-	.	.	.	.	.	.
.	.	.	.	.	16c\JJ	.	.	.	.	.	.	.
8E\J	.	.	.	.	16d\LL	-a	.	.	.	.	.	.
!	!	!	!	!	!LO:SIC:s=16gJJ	!	!	!	!	!	!	!
.	.	.	.	.	16gn\JJ	.	.	.	.	.	.	.
=47	=47	=47	=47	=47	=47	=47	=47	=47	=47	=47	=47	=47
.	.	.	.	.	8qqg/	.	.	.	.	.	.	.
!LO:TX:t=P:problem=mixed beam	!	!	!	!	!	!	!	!	!	!	!	!
8D\L	.	.	.	2ryy	4f\	e-	.	.	.	.	.	.
8GG/	.	.	.	.	.	.	.	.	.	.	.	.
8C/	.	.	.	.	4e\	-jus	.	.	.	.	.	.
8E/J	.	.	.	.	.	.	.	.	.	.	.	.
=48	=48	=48	=48	=48	=48	=48	=48	=48	=48	=48	=48	=48
8F\L	.	.	.	2ryy	16d\LL	ma-	.	.	.	.	.	.
.	.	.	.	.	16B\J	.	.	.	.	.	.	.
8E\	.	.	.	.	8c\J	.	.	.	.	.	.	.
8F\	.	.	.	.	16d\LL	-net	.	.	.	.	.	.
.	.	.	.	.	16B\JJ	.	.	.	.	.	.	.
8E\J	.	.	.	.	16c\LL	in	.	.	.	.	.	.
.	.	.	.	.	16g\JJ	.	.	.	.	.	.	.
=49	=49	=49	=49	=49	=49	=49	=49	=49	=49	=49	=49	=49
!LO:TX:t=P:problem=mixed beam	!	!	!	!	!	!LO:SIC:s=sae-	!LO:N:vis=0	!	!LO:N:vis=0	!LO:N:vis=0	!	!
8D\L	.	.	.	2ryy	8.f\	Se-	1r	.	1r	1r	.	.
8GG/	.	.	.	.	.	.	.	.	.	.	.	.
.	.	.	.	.	16f\	-cu-	.	.	.	.	.	.
8C/	.	.	.	.	4e\	-lum	.	.	.	.	.	.
8c\J	.	.	.	.	.	.	.	.	.	.	.	.
=50	=50	=50	=50	=50	=50	=50	=50	=50	=50	=50	=50	=50
!LO:TX:t=P:problem=mixed beam	!	!	!	!	!	!LO:SIC:s=sae-	!	!	!	!	!	!
8F\L	.	2r	.	2ryy	16d\LL	Se-	.	.	.	.	2r	2r
.	.	.	.	.	16a\JJ	.	.	.	.	.	.	.
8F\	.	.	.	.	16g\	-cu-	.	.	.	.	.	.
.	.	.	.	.	16f\	-lum	.	.	.	.	.	.
!	!	!	!	!	!LO:LB:g=original	!LO:SIC:s=sae-	!	!	!	!	!	!
8G\	.	.	.	.	16e\LL	se-	.	.	.	.	.	.
.	.	.	.	.	16d\JJ	.	.	.	.	.	.	.
8GG/J	.	.	.	.	16c\LL	-cu-	.	.	.	.	.	.
.	.	.	.	.	16B\JJ	.	.	.	.	.	.	.
=51	=51	=51	=51	=51	=51	=51	=51	=51	=51	=51	=51	=51
!LO:TX:a:i:mod= :t=Tutti.	!	!	!	!	!	!LO:SIC:s=-li.	!	!	!	!	!	!
8C\L	.	4r	.	2ryy	4c\	-li	4r	.	4r	4r	4r	4r
8D\	.	.	.	.	.	.	.	.	.	.	.	.
!	!	!LO:TX:a:i:mod= :t=Tutti.	!	!	!	!	!LO:TX:a:i:mod= :t=Tutti	!	!	!	!	!
8E\	.	8r	.	.	8r	.	8r	.	8r	8r	8r	8r
!	!	!	!	!	!	!LO:SIC:s=Ex-	!	!	!	!	!	!
8G\J	.	8dd\	.	.	8B\	ex-	8dd\	Ex-	8g/	8dd\	8dd\	8gg\
!	!	!	!	!	!	!	!	!	!	!LO:LB:g=original	!	!
=52	=52	=52	=52	=52	=52	=52	=52	=52	=52	=52	=52	=52
8C\L	.	16ee\LL	.	2ryy	8c\	-or-	8ee\	-or-	8cc\L	8ee\L	16ee\LL	16gg\LL
.	.	16ee\	.	.	.	.	.	.	.	.	16ee\	16gg\
8D\	.	16ee\	.	.	8c\	-tum	8ee\	-tum	8cc\	8ee\	16ee\	16gg\
.	.	16ee\JJ	.	.	.	.	.	.	.	.	16ee\JJ	16gg\JJ
!	!	!	!	!	!	!LO:SIC:s=est	!	!	!	!	!	!
8E\	.	16ee\LL	.	.	8c\	et	8ee\	eſt	8cc\	8ee\	16ee\LL	16gg\LL
.	.	16ee\	.	.	.	.	.	.	.	.	16ee\	16gg\
8F\J	.	16ee\	.	.	8c\	in	8ee\	in	8cc\J	8ee\J	16ee\	16gg\
.	.	16ee\JJ	.	.	.	.	.	.	.	.	16ee\JJ	16gg\JJ
!	!	!LO:LB:g=original	!	!	!	!	!	!	!	!	!	!
=53	=53	=53	=53	=53	=53	=53	=53	=53	=53	=53	=53	=53
8G\L	.	16dd\LL	.	2ryy	8B\	te-	8dd\	te-	8g/L	8dd\L	16dd\LL	16gg\LL
.	.	16dd\	.	.	.	.	.	.	.	.	16dd\	16gg\
8A\	.	16dd\	.	.	8B\	-ne-	8dd\	-ne-	8g/	8dd\	16dd\	16gg\
.	.	16dd\JJ	.	.	.	.	.	.	.	.	16dd\JJ	16gg\JJ
8B\	.	16dd\LL	.	.	4B\	-bris	4dd\	-briſ	8g/	8dd\	16dd\LL	16gg\LL
.	.	16dd\	.	.	.	.	.	.	.	.	16dd\	16gg\
8G\J	.	16dd\	.	.	.	.	.	.	8g/J	8dd\J	16dd\	16gg\
.	.	16dd\JJ	.	.	.	.	.	.	.	.	16dd\JJ	16gg\JJ
!	!	!	!	!	!	!	!	!	!	!	!LO:LB:g=original	!LO:LB:g=original
=54	=54	=54	=54	=54	=54	=54	=54	=54	=54	=54	=54	=54
8A\L	.	16cc\LL	.	2ryy	8A\	lu-	8cc\	lu-	8dd\L	8dd\L	16cc\LL	16ff#X\LL
.	.	16cc\	.	.	.	.	.	.	.	.	16cc\	16ff#\
8G\	.	16cc\	.	.	8A\	-men	8cc\	-men	8dd\	8dd\	16cc\	16ff#\
.	.	16cc\JJ	.	.	.	.	.	.	.	.	16cc\JJ	16ff#\JJ
8F#X\	.	16cc\LL	.	.	4A\	rec-	4cc\	rec-	8dd\	8dd\	16cc\LL	16ff#\LL
.	.	16cc\	.	.	.	.	.	.	.	.	16cc\	16ff#\
8D\J	.	16cc\	.	.	.	.	.	.	8dd\J	8dd\J	16cc\	16ff#\
.	.	16cc\JJ	.	.	.	.	.	.	.	.	16cc\JJ	16ff#\JJ
!	!	!	!	!	!	!	!LO:LB:g=original	!	!	!	!	!
=55	=55	=55	=55	=55	=55	=55	=55	=55	=55	=55	=55	=55
8G\L	.	16b\LL	.	2ryy	4G/	-tis	4b\	-tiſ	8g/L	8dd\L	16b\LL	16gg\LL
.	.	16b\	.	.	.	.	.	.	.	.	16b\	16gg\
16G\L	.	16b\	.	.	.	.	.	.	16g/L	16dd\L	16b\	16gg\
16Fn\JJ	.	16b\JJ	.	.	.	.	.	.	16g/JJ	16dd\JJ	16b\JJ	16gg\JJ
8E\L	.	16b\LL	.	.	8r	.	8r	.	4g/	4dd\	16b\LL	16gg\LL
.	.	16b\	.	.	.	.	.	.	.	.	16b\	16gg\
8C\J	.	16b\	.	.	8c\	mi-	8g\	mi-	.	.	16b\	16gg\
.	.	16b\JJ	.	.	.	.	.	.	.	.	16b\JJ	16gg\JJ
=56	=56	=56	=56	=56	=56	=56	=56	=56	=56	=56	=56	=56
8F\L	.	16a/LL	.	2ryy	8c\	-se-	8a\	-ſe-	8cc\L	8cc\L	16a/LL	16cc\LL
.	.	16a/	.	.	.	.	.	.	.	.	16a/	16cc\
8G\	.	16a/	.	.	8c\	-ri-	8a\	-ri-	8cc\	8cc\	16a/	16cc\
.	.	16a/JJ	.	.	.	.	.	.	.	.	16a/JJ	16cc\JJ
8A\	.	16a/LL	.	.	8c\	-cors	8a\	-cors	8cc\	8cc\	16a/LL	16cc\LL
.	.	16a/	.	.	.	.	.	.	.	.	16a/	16cc\
8F\J	.	16a/	.	.	8c\	et	8a\	et	8cc\J	8cc\J	16a/	16cc\
.	.	16a/JJ	.	.	.	.	.	.	.	.	16a/JJ	16cc\JJ
!	!	!	!	!	!LO:LB:g=original	!	!	!	!	!	!	!
=57	=57	=57	=57	=57	=57	=57	=57	=57	=57	=57	=57	=57
!	!	!	!	!	!LO:SIC:v:s=8c\	!	!	!	!	!	!	!
8C\L	.	16g/LL	.	2ryy	8B\	mi-	8g\	mi-	8cc\L	8cc\L	16g/LL	16cc\LL
.	.	16g/	.	.	.	.	.	.	.	.	16g/	16cc\
!	!	!	!	!	!LO:SIC:v:s=8c\	!	!	!	!	!	!	!
8D\	.	16g/	.	.	8B\	-se-	8g\	-ſe-	8cc\	8cc\	16g/	16cc\
.	.	16g/JJ	.	.	.	.	.	.	.	.	16g/JJ	16cc\JJ
!	!	!	!	!	!LO:SIC:v:s=8c\	!	!	!	!	!	!	!
8E\	.	16g/LL	.	.	8B\	-ra-	8g\	-ra-	8cc\	8cc\	16g/LL	16cc\LL
.	.	16g/	.	.	.	.	.	.	.	.	16g/	16cc\
!	!	!	!	!	!LO:SIC:v:s=8c\	!	!	!	!	!	!	!
8C\J	.	16g/	.	.	8B\	-tor	8g\	-tor	8cc\J	8cc\J	16g/	16cc\
.	.	16g/JJ	.	.	.	.	.	.	.	.	16g/JJ	16cc\JJ
!LO:LB:g=original	!	!	!	!	!	!	!	!	!	!	!	!
=58	=58	=58	=58	=58	=58	=58	=58	=58	=58	=58	=58	=58
8D/L	.	16f/LL	.	2ryy	4d\	et	4f/	et	8g/L	8dd\L	16f/LL	16b\LL
.	.	16f/	.	.	.	.	.	.	.	.	16f/	16b\
8C/	.	16f/	.	.	.	.	.	.	8g/	8dd\	16f/	16b\
.	.	16f/JJ	.	.	.	.	.	.	.	.	16f/JJ	16b\JJ
!	!	!	!	!	!	!LO:SIC:s=ju-	!	!	!	!	!	!
8BB/	.	16f/LL	.	.	4d\	jus-	4f/	ju-	8g/	8dd\	16f/LL	16b\LL
.	.	16f/	.	.	.	.	.	.	.	.	16f/	16b\
8GG/J	.	16f/	.	.	.	.	.	.	8g/J	8dd\J	16f/	16b\
.	.	16f/JJ	.	.	.	.	.	.	.	.	16f/JJ	16b\JJ
=59	=59	=59	=59	=59	=59	=59	=59	=59	=59	=59	=59	=59
!	!	!	!	!	!	!LO:SIC:s=-stus	!	!	!	!	!	!
8C\L	.	16e/LL	.	2ryy	4c\	-tus	4e/	-stuſ	8cc\L	8ee\L	16e/LL	16cc\LL
.	.	16e/	.	.	.	.	.	.	.	.	16e/	16cc\
8D\	.	16e/	.	.	.	.	.	.	16cc\L	16ee\L	16e/	16cc\
.	.	16e/JJ	.	.	.	.	.	.	16cc\JJ	16ee\JJ	16e/JJ	16cc\JJ
!	!	!LO:TX:t=P:problem=mixed beam	!	!	!	!	!	!	!	!	!LO:TX:t=P:problem=mixed beam	!
8E\	.	8e/L	.	.	8r	.	8r	.	8cc\L	8ee\L	8e/L	8cc\L
8G\J	.	8b\J	.	.	8G/	et	8dd\	et	8g\J	8dd\J	8b\J	8dd\J
=60	=60	=60	=60	=60	=60	=60	=60	=60	=60	=60	=60	=60
4C/	.	8cc\L	.	2ryy	4G/	mi-	4ee\	mi-	4cc\	4ee\	8cc\L	16ee\LL
.	.	.	.	.	.	.	.	.	.	.	.	16gg\
.	.	8ee\	.	.	.	.	.	.	.	.	8ee\	16ff#X\
.	.	.	.	.	.	.	.	.	.	.	.	16gg\JJ
4BB/	.	8b\	.	.	4G/	-se-	4dd\	-ſe-	4g\	4dd\	8b\	16dd\LL
.	.	.	.	.	.	.	.	.	.	.	.	16gg\
.	.	8dd\J	.	.	.	.	.	.	.	.	8dd\J	16ff#X\
.	.	.	.	.	.	.	.	.	.	.	.	16gg\JJ
=61	=61	=61	=61	=61	=61	=61	=61	=61	=61	=61	=61	=61
4C/	.	8g\L	.	2ryy	4G/	-ra-	8ee\L	-ra-	4cc\	4ee\	8g\L	8ee\L
.	.	8cc\	.	.	.	.	8ff#X\J	.	.	.	8cc\	8aa\
8BB/L	.	8b\	.	.	8B\	-tor	8gg\	-tor	4r	4r	8b\	8gg\
8C/J	.	8cc\J	.	.	8A\	et	8cc\	et	.	.	8cc\J	8aa\J
=62	=62	=62	=62	=62	=62	=62	=62	=62	=62	=62	=62	=62
!	!	!	!	!	!	!LO:SIC:s=ju-	!LO:SIC:s=(4b	!	!	!	!	!
4D\	.	4b\	.	2ryy	(>4G/	jus-	4b\	ju-	4dd\	4dd\	4b\	4gg\
!	!	!	!	!	!	!	!LO:SIC:s=4a)	!	!	!	!	!
4DD/	.	4a\	.	.	4F#X/)	.	4a\	.	4dd\	4dd\	4a\	4ff#X\
=63	=63	=63	=63	=63	=63	=63	=63	=63	=63	=63	=63	=63
!	!	!	!	!	!	!LO:SIC:s=-stus.	!	!LO:SIC:s=-stus.	!	!	!	!LO:TX:t=P:problem=mixed beam
8GG/L	.	16b\LL	.	2ryy	4G/	-tus	4g\	-stuſ	4g/	4dd\	16b\LL	16gg\LL
.	.	16g\	.	.	.	.	.	.	.	.	16g\	16g/
8AA/	.	16b\	.	.	.	.	.	.	.	.	16b\	16b/
.	.	16dd\JJ	.	.	.	.	.	.	.	.	16dd\JJ	16dd/JJ
8BB/	.	8gg\L	.	.	4r	.	4r	.	4r	4r	8gg\L	8gg\L
!	!	!LO:TX:a:i:mod= :t=Solo	!	!	!	!	!	!	!	!	!	!
8GG/J	.	8dd\J	.	.	.	.	.	.	.	.	8dd\J	8dd\J
!	!	!LO:LB:g=original	!	!	!	!	!	!	!LO:LB:g=original	!	!	!LO:LB:g=original
=64	=64	=64	=64	=64	=64	=64	=64	=64	=64	=64	=64	=64
!LO:TX:a:i:mod= :t=Solo.	!	!	!	!	!LO:N:vis=00	!	!LO:N:vis=00	!	!LO:N:vis=00	!LO:N:vis=00	!	!
8C/L	.	16ee\LL	.	2ryy	0r	.	0r	.	0r	0r	16ee\LL	16ee\LL
.	.	16cc\	.	.	.	.	.	.	.	.	16cc\	16cc\
8C/	.	16g#X\	.	.	.	.	.	.	.	.	16g#X\	16g#X\
.	.	16a\JJ	.	.	.	.	.	.	.	.	16a\JJ	16a\JJ
8C/	.	16a\LL	.	.	.	.	.	.	.	.	16a\LL	16a\LL
.	.	16cc\	.	.	.	.	.	.	.	.	16cc\	16cc\
8C/J	.	16ee\	.	.	.	.	.	.	.	.	16ee\	16ee\
.	.	16cc\JJ	.	.	.	.	.	.	.	.	16cc\JJ	16cc\JJ
!	!	!	!	!	!	!	!	!	!	!	!LO:LB:g=original	!
=65	=65	=65	=65	=65	=65	=65	=65	=65	=65	=65	=65	=65
8BB/L	.	16dd\LL	.	2ryy	.	.	.	.	.	.	16dd\LL	16dd\LL
.	.	16b\	.	.	.	.	.	.	.	.	16b\	16b\
8BB/	.	16f#X\	.	.	.	.	.	.	.	.	16f#X\	16f#X\
.	.	16gn\JJ	.	.	.	.	.	.	.	.	16gn\JJ	16gn\JJ
8BB/	.	16g\LL	.	.	.	.	.	.	.	.	16g\LL	16g\LL
.	.	16b\	.	.	.	.	.	.	.	.	16b\	16b\
8BB/J	.	16dd\	.	.	.	.	.	.	.	.	16dd\	16dd\
.	.	16b\JJ	.	.	.	.	.	.	.	.	16b\JJ	16b\JJ
=66	=66	=66	=66	=66	=66	=66	=66	=66	=66	=66	=66	=66
8AA/L	.	16cc\LL	.	2ryy	.	.	.	.	.	.	16cc\LL	16cc\LL
.	.	16a\	.	.	.	.	.	.	.	.	16a\	16a\
8AA/	.	16e\	.	.	.	.	.	.	.	.	16e\	16e\
.	.	16f#X\JJ	.	.	.	.	.	.	.	.	16f#X\JJ	16f#X\JJ
8D/	.	16f#\LL	.	.	.	.	.	.	.	.	16f#\LL	16f#\LL
.	.	16a\	.	.	.	.	.	.	.	.	16a\	16a\
8D/J	.	16cc\	.	.	.	.	.	.	.	.	16cc\	16cc\
.	.	16a\JJ	.	.	.	.	.	.	.	.	16a\JJ	16a\JJ
=67	=67	=67	=67	=67	=67	=67	=67	=67	=67	=67	=67	=67
8GG/L	.	8b/L	.	2ryy	.	.	.	.	.	.	8b/L	8b/L
8BB/	.	8g/	.	.	.	.	.	.	.	.	8g/	8g/
8D/	.	8a/	.	.	.	.	.	.	.	.	8a/	8a/
8DD/J	.	8f#X/J	.	.	.	.	.	.	.	.	8f#X/J	8f#X/J
=68	=68	=68	=68	=68	=68	=68	=68	=68	=68	=68	=68	=68
!	!	!	!	!	!	!	!	!	!LO:N:vis=00	!LO:N:vis=00	!	!
8GG/L	.	4g/	.	2ryy	4r	.	4r	.	0r	0r	4g/	4g/
8AA/	.	.	.	.	.	.	.	.	.	.	.	.
8BB/	.	8r	.	.	8r	.	8r	.	.	.	4r	4r
!	!LO:DY:a:t=pia&colon;	!	!LO:DY:a:t=pia&colon;	!	!LO:TX:a:i:mod= :t=Solo	!	!LO:TX:a:i:mod= :t=Solo.	!LO:SIC:s=Ju-	!	!	!	!
8GG/J	p	8b\	p	.	8B\	Ju-	8dd\	ju-	.	.	.	.
!	!	!	!	!	!LO:LB:g=original	!	!LO:LB:g=original	!	!	!	!	!
=69	=69	=69	=69	=69	=69	=69	=69	=69	=69	=69	=69	=69
!	!	!	!	!	!	!	!	!	!	!	!LO:N:vis=00	!LO:N:vis=00
4C\	.	4g/	.	2ryy	8c\	-cun-	8ee\	-cun-	.	.	0r	0r
.	.	.	.	.	8B\	-dus	8dd\	-dus	.	.	.	.
4D\	.	4a/	.	.	4A\	ho-	4cc\	ho-	.	.	.	.
=70	=70	=70	=70	=70	=70	=70	=70	=70	=70	=70	=70	=70
4GG/	.	16.b\LL	.	2ryy	4G/	-mo	4b\	-mo	.	.	.	.
.	.	32gg\K	.	.	.	.	.	.	.	.	.	.
.	.	16.dd\	.	.	.	.	.	.	.	.	.	.
.	.	32b\JJk	.	.	.	.	.	.	.	.	.	.
4G\	.	4g/	.	.	4r	.	4r	.	.	.	.	.
=71	=71	=71	=71	=71	=71	=71	=71	=71	=71	=71	=71	=71
8G\L	.	8b\L	.	2ryy	4B\	qui	4gg\	qui	.	.	.	.
8G\	.	8b\	.	.	.	.	.	.	.	.	.	.
8G\	.	8dd\	.	.	8d\	mi-	8ff#X\	mi-	.	.	.	.
8G\J	.	8cc\J	.	.	8c\	-se-	8ee\	-ſe-	.	.	.	.
=72	=72	=72	=72	=72	=72	=72	=72	=72	=72	=72	=72	=72
!	!	!	!	!	!	!LO:SIC:s=-re-	!	!	!LO:N:vis=00	!LO:N:vis=00	!	!
8G\L	.	8b\L	.	2ryy	4B\	-ra-	4dd\	-re-	0r	0r	.	.
8G\	.	8b\	.	.	.	.	.	.	.	.	.	.
!	!	!	!	!	!	!LO:SIC:s=-tur	!	!	!	!	!	!
8G\	.	8a\	.	.	8A\	-tor	8cc\	-tur	.	.	.	.
8G\J	.	8g\J	.	.	8G\	et	8b\	et	.	.	.	.
!LO:LB:g=original	!	!	!	!	!	!	!	!	!	!	!	!
=73	=73	=73	=73	=73	=73	=73	=73	=73	=73	=73	=73	=73
!	!	!	!	!	!	!LO:SIC:s=com-	!	!LO:SIC:s=com-	!	!	!LO:N:vis=00	!LO:N:vis=00
4F#X\	.	4a/	.	2ryy	4A\	co-	4cc\	co(m)-	.	.	0r	0r
4G\	.	4g/	.	.	4G\	-mo-	4b\	-mo-	.	.	.	.
=74	=74	=74	=74	=74	=74	=74	=74	=74	=74	=74	=74	=74
!	!	!LO:TX:t=P:problem=mixed beam	!	!	!	!	!	!	!	!	!	!
4D\	.	8f#X/L	.	2ryy	4F#X/	-dat	4a\	-dat	.	.	.	.
!	!	!LO:SIC:s=8ff#	!	!	!	!	!	!	!	!	!	!
.	.	8ff#y\	.	.	.	.	.	.	.	.	.	.
8r	.	8ff#\	.	.	8r	.	8r	.	.	.	.	.
8D\	.	8f#/J	.	.	8F#/	dis-	8dd\	diſ-	.	.	.	.
=75	=75	=75	=75	=75	=75	=75	=75	=75	=75	=75	=75	=75
!LO:TX:t=P:problem=mixed beam	!	!LO:SIC:v:s=8f#/L	!	!	!LO:SIC:v:s=8F#/L	!	!	!	!	!	!	!
8A\L	.	8f/L	.	2ryy	8F/L	-po-	8dd\L	-po-	.	.	.	.
8AA/	.	8e/	.	.	8E/J	.	8cc#X\J	.	.	.	.	.
8AA/	.	8e/	.	.	8E/	-net	8cc#\	-net	.	.	.	.
8AA/J	.	8g/J	.	.	8G/	ser-	8ee\	ſer-	.	.	.	.
!	!	!LO:LB:g=original	!	!	!	!	!	!	!	!	!	!
=76	=76	=76	=76	=76	=76	=76	=76	=76	=76	=76	=76	=76
!	!	!LO:TX:t=P:problem=mixed beam	!	!	!	!	!	!	!LO:N:vis=00	!LO:N:vis=00	!	!
8AA/L	.	8g/L	.	2ryy	8G/L	-mo-	8ee\L	-mo-	0r	0r	.	.
!	!	!	!	!	!LO:SIC:v:s=8F#/J	!	!	!	!	!	!	!
8AA/	.	8f#X/	.	.	8F/J	.	8dd\J	.	.	.	.	.
!	!	!	!	!	!LO:SIC:v:s=4F#/	!	!	!	!	!	!	!
8AA/	.	8f#/	.	.	4F/	-nes	4dd\	-nes	.	.	.	.
8AA/J	.	8dd\J	.	.	.	.	.	.	.	.	.	.
!	!	!	!	!	!LO:LB:g=original	!	!	!	!	!	!	!
=77	=77	=77	=77	=77	=77	=77	=77	=77	=77	=77	=77	=77
!	!	!	!	!	!	!	!	!	!	!	!LO:N:vis=00	!LO:N:vis=00
8AA/L	.	8dd\L	.	2ryy	8d\	su-	8ff#X\	ſu-	.	.	0r	0r
8AA/	.	8cc#X\	.	.	8c#X\	-o	8ee\	-os	.	.	.	.
8AA/	.	8cc#\	.	.	8c#\	in	8ee\	in	.	.	.	.
8AA/J	.	8ee\J	.	.	8e\	ju-	8gg\	ju-	.	.	.	.
=78	=78	=78	=78	=78	=78	=78	=78	=78	=78	=78	=78	=78
8D\L	.	8ee\L	.	2ryy	8e\	-di-	8gg\	-di-	.	.	.	.
8D\	.	8dd\	.	.	8d\	-ci-	8ff#X\	-ci-	.	.	.	.
8D\	.	8ff#X\	.	.	4d\	-o	4ff#\	-o	.	.	.	.
8D\J	.	8b\J	.	.	.	.	.	.	.	.	.	.
!	!	!	!	!	!	!	!LO:LB:g=original	!	!	!	!	!
=79	=79	=79	=79	=79	=79	=79	=79	=79	=79	=79	=79	=79
!	!	!	!	!	!	!LO:SIC:s=qui-	!	!	!	!	!	!
8r	.	4.a/	.	2ryy	4.A\	Qui-	4.ccn\	qui-	.	.	.	.
8D\L	.	.	.	.	.	.	.	.	.	.	.	.
8D\	.	.	.	.	.	.	.	.	.	.	.	.
8D\J	.	16g/LL	.	.	16G/LL	-a	16b\LL	-a	.	.	.	.
.	.	16f#X/JJ	.	.	16F#X/JJ	.	16a\JJ	.	.	.	.	.
=80	=80	=80	=80	=80	=80	=80	=80	=80	=80	=80	=80	=80
!	!	!	!	!	!	!	!	!	!LO:N:vis=00	!LO:N:vis=00	!	!
4G\	.	(8g\L	.	2ryy	8G\L	in	8b\L	in	0r	0r	.	.
!	!	!LO:SIC:s=8ccJ)	!	!	!LO:SIC:s=8cJ	!	!	!	!	!	!	!
.	.	8ccn\)	.	.	8cn\J	.	8ee\J	.	.	.	.	.
4r	.	(8b\	.	.	4B\	ae-	4dd\	ae-	.	.	.	.
.	.	8gg\J)	.	.	.	.	.	.	.	.	.	.
=81	=81	=81	=81	=81	=81	=81	=81	=81	=81	=81	=81	=81
!	!	!	!	!	!	!	!	!	!	!	!LO:N:vis=0	!LO:N:vis=0
8r	.	4a/	.	2ryy	4A\	-ter-	4cc\	-ter-	.	.	1r	1r
8D\L	.	.	.	.	.	.	.	.	.	.	.	.
!	!	!	!	!	!	!LO:SIC:s=-num	!	!	!	!	!	!
8D\	.	8a/L	.	.	8A\	-nu(m)	8cc\	-num	.	.	.	.
8D\J	.	16g/L	.	.	16G\LL	non	16b\LL	non	.	.	.	.
!	!	!	!	!	!LO:SIC:v:s=16F#\JJ	!	!	!	!	!	!	!
.	.	16f#X/JJ	.	.	16F\JJ	.	16a\JJ	.	.	.	.	.
=82	=82	=82	=82	=82	=82	=82	=82	=82	=82	=82	=82	=82
!	!	!	!	!	!	!LO:SIC:s=com-	!	!LO:SIC:s=com-	!	!	!	!
8G\L	.	8g/L	.	2ryy	8G\L	Co-	8b\L	co(m)-	.	.	.	.
8C\	.	8g/	.	.	8c\J	.	8ee\J	.	.	.	.	.
8BB\	.	8g/	.	.	8B\L	-mo-	8dd\L	-mo-	.	.	.	.
8C\J	.	8a/J	.	.	8A\J	.	8cc\J	.	.	.	.	.
=83	=83	=83	=83	=83	=83	=83	=83	=83	=83	=83	=83	=83
4D\	.	4g/	.	2ryy	4G/	-ve-	4b\	-ve-	.	.	2r	2r
4DD/	.	4f#X/	.	.	4F#X/	-bi-	4a\	-bi-	.	.	.	.
=84	=84	=84	=84	=84	=84	=84	=84	=84	=84	=84	=84	=84
!	!	!	!	!	!	!LO:SIC:s=-tur.	!	!	!LO:N:vis=00	!LO:N:vis=00	!	!
4GG/	.	16g\LL	.	2ryy	4G/	-tur	4g\	-tur.	0r	0r	16r	16r
.	.	16g\	.	.	.	.	.	.	.	.	16g\LL	16g\LL
.	.	16b\	.	.	.	.	.	.	.	.	16b\	16b\
.	.	16dd\JJ	.	.	.	.	.	.	.	.	16dd\JJ	16dd\JJ
!	!	!	!	!	!LO:LB:g=original	!LO:SIC:s=In	!LO:TX:a:i:mod= :t=Tutti	!	!	!	!	!
8r	.	8gg\L	.	.	8B\	in	8dd\	In	.	.	8gg\L	8gg\L
!LO:TX:a:i:mod= :t=Tutti	!	!	!	!	!	!	!	!	!	!	!	!
8G\	.	8dd\J	.	.	8B\	me-	8dd\	me-	.	.	8dd\J	8dd\J
=85	=85	=85	=85	=85	=85	=85	=85	=85	=85	=85	=85	=85
8c\L	.	4g/	.	2ryy	4c\	-mo-	4ee\	-mo-	.	.	4g/	4ee\
8A\	.	.	.	.	.	.	.	.	.	.	.	.
8d\	.	4a/	.	.	4A\	-ri-	4ff#X\	-ri-	.	.	4a/	4ff#X\
8c\J	.	.	.	.	.	.	.	.	.	.	.	.
=86	=86	=86	=86	=86	=86	=86	=86	=86	=86	=86	=86	=86
!	!	!	!	!	!	!	!	!	!	!	!	!LO:TX:t=P:problem=mixed beam
8B\L	.	4b\	.	2ryy	4B\	-a	4gg\	-a	.	.	4b\	8gg\L
8G\J	.	.	.	.	.	.	.	.	.	.	.	8g/J
8r	.	16gg\LL	.	.	4e\	ae-	4g\	ae-	.	.	16gg\LL	16gg\LL
.	.	16dd\	.	.	.	.	.	.	.	.	16dd\	16dd\
8E\	.	16b\	.	.	.	.	.	.	.	.	16b\	16b\
.	.	16g\JJ	.	.	.	.	.	.	.	.	16g\JJ	16g\JJ
!LO:LB:g=original	!	!	!	!	!	!	!	!	!	!	!	!
=87	=87	=87	=87	=87	=87	=87	=87	=87	=87	=87	=87	=87
8F\L	.	4cc\	.	2ryy	(4f\	-ter-	(4a\	-ter-	.	.	4cc\	4a\
8D\	.	.	.	.	.	.	.	.	.	.	.	.
8G\	.	4dd\	.	.	4d\)	.	4b\)	.	.	.	4dd\	4b\
8F\J	.	.	.	.	.	.	.	.	.	.	.	.
=88	=88	=88	=88	=88	=88	=88	=88	=88	=88	=88	=88	=88
!	!	!LO:TX:t=P:problem=mixed beam	!	!	!	!	!	!	!	!	!LO:TX:t=P:problem=mixed beam	!LO:TX:t=P:problem=mixed beam
8E\L	.	16ee\LL	.	2ryy	4e\	-na	4cc\	-na	4r	4r	16ee\LL	16cc\LL
.	.	16c/	.	.	.	.	.	.	.	.	16cc\	16cc\
8C\J	.	16e/	.	.	.	.	.	.	.	.	16e/	16e/
.	.	16g/JJ	.	.	.	.	.	.	.	.	16g/JJ	16g/JJ
!	!	!	!	!	!	!	!LO:SIC:s=(4g	!	!	!	!	!
8r	.	8cc\L	.	.	(4e\	e-	4g\	e-	8r	8r	8cc\L	8cc\L
8E\	.	8ee\J	.	.	.	.	.	.	8ee\	8gg\	8ee\J	8gg\J
!	!	!	!	!	!	!	!	!	!	!LO:LB:g=original	!	!LO:LB:g=original
=89	=89	=89	=89	=89	=89	=89	=89	=89	=89	=89	=89	=89
!	!	!	!	!	!	!	!LO:SIC:s=4a)	!	!	!	!	!
8F\L	.	4cc\	.	2ryy	4f\)	.	4a\	.	4ff\	4aa\	4cc\	4aa\
8E\	.	.	.	.	.	.	.	.	.	.	.	.
8F\	.	4ff\	.	.	4d\	-rit	4ff\	-rit	4ff\	4aa\	4ff\	4aa\
8D\J	.	.	.	.	.	.	.	.	.	.	.	.
=90	=90	=90	=90	=90	=90	=90	=90	=90	=90	=90	=90	=90
8E\L	.	4b\	.	2ryy	4e\	e-	4g\	e-	4ee\	4gg\	4b\	4gg\
8D\	.	.	.	.	.	.	.	.	.	.	.	.
8E\	.	4ee\	.	.	4c\	-rit	4ee\	-rit	4ee\	4gg\	4ee\	4gg\
8C\J	.	.	.	.	.	.	.	.	.	.	.	.
!	!	!LO:LB:g=original	!	!	!	!	!	!	!	!	!	!
=91	=91	=91	=91	=91	=91	=91	=91	=91	=91	=91	=91	=91
!	!	!	!	!	!	!LO:SIC:s=ju-	!	!	!	!	!	!
8D/L	.	4a\	.	2ryy	(4d\	jus-	(4f\	ju-	4dd\	4ff\	4a\	4ff\
8C/	.	.	.	.	.	.	.	.	.	.	.	.
8D/	.	4dd\	.	.	4B\)	.	4dd\)	.	4dd\	4ff\	4dd\	4ff\
8GG/J	.	.	.	.	.	.	.	.	.	.	.	.
!	!	!	!	!	!	!	!LO:LB:g=original	!	!	!	!LO:LB:g=original	!
=92	=92	=92	=92	=92	=92	=92	=92	=92	=92	=92	=92	=92
!	!	!	!	!	!	!LO:SIC:s=-stus	!	!	!	!	!	!
4C\	.	4cc\	.	2ryy	4c\	-tus	4e/	-stus	4cc\	4ee\	4cc\	4ee\
8C\L	.	16cc\LL	.	.	8e\	ab	8cc\	ab	4r	4r	16cc\LL	16cc\LL
.	.	16cc\	.	.	.	.	.	.	.	.	16cc\	16cc\
8D\J	.	16cc\	.	.	8e\	au-	8cc\	au-	.	.	16cc\	16cc\
.	.	16cc\JJ	.	.	.	.	.	.	.	.	16cc\JJ	16cc\JJ
=93	=93	=93	=93	=93	=93	=93	=93	=93	=93	=93	=93	=93
8E\L	.	16gg\LL	.	2ryy	8e\	-di-	8cc\	-di-	8cc\L	8cc\L	16gg\LL	16bb-X\LL
.	.	16gg\	.	.	.	.	.	.	.	.	16gg\	16bb-\
8G\	.	16gg\	.	.	8e\	-ti-	8cc\	-ti-	8cc\	8cc\	16gg\	16bb-\
.	.	16gg\JJ	.	.	.	.	.	.	.	.	16gg\JJ	16bb-\JJ
8E\	.	16gg\LL	.	.	4e\	-o-	4b-X\	-o-	8cc\	8cc\	16gg\LL	16bb-\LL
.	.	16gg\	.	.	.	.	.	.	.	.	16gg\	16bb-\
8C\J	.	16gg\	.	.	.	.	.	.	8cc\J	8cc\J	16gg\	16bb-\
.	.	16gg\JJ	.	.	.	.	.	.	.	.	16gg\JJ	16bb-\JJ
!	!	!	!	!	!LO:LB:g=original	!	!	!	!	!	!	!
=94	=94	=94	=94	=94	=94	=94	=94	=94	=94	=94	=94	=94
4F\	.	16ff\LL	.	2ryy	4f\	-ne	4a\	-ne	4cc\	4cc\	16ff\LL	16aa\LL
.	.	16ff\	.	.	.	.	.	.	.	.	16ff\	16aa\
.	.	16ff\	.	.	.	.	.	.	.	.	16ff\	16aa\
.	.	16ff\JJ	.	.	.	.	.	.	.	.	16ff\JJ	16aa\JJ
8D\L	.	16dd\LL	.	.	8f\	ma-	8dd\	ma-	4r	4r	16dd\LL	16dd\LL
.	.	16dd\	.	.	.	.	.	.	.	.	16dd\	16dd\
8E\J	.	16dd\	.	.	8f\	-la	8dd\	-la	.	.	16dd\	16dd\
.	.	16dd\JJ	.	.	.	.	.	.	.	.	16dd\JJ	16dd\JJ
=95	=95	=95	=95	=95	=95	=95	=95	=95	=95	=95	=95	=95
!	!	!	!	!	!	!	!	!	!	!	!LO:SIC:s=16ccLL	!
8F#X\L	.	16aa\LL	.	2ryy	8f#X\	non	8dd\	non	8dd\L	8dd\L	16ccn\LL	16aa\LL
.	.	16aa\	.	.	.	.	.	.	.	.	16cc\	16aa\
8A\	.	16aa\	.	.	8f#\	ti-	8dd\	ti-	8dd\	8dd\	16cc\	16aa\
.	.	16aa\JJ	.	.	.	.	.	.	.	.	16cc\JJ	16aa\JJ
8F#\	.	16aa\LL	.	.	4f#\	-me-	4cc\	-me-	8dd\	8dd\	16cc\LL	16aa\LL
.	.	16aa\	.	.	.	.	.	.	.	.	16cc\	16aa\
8D\J	.	16aa\	.	.	.	.	.	.	8dd\J	8dd\J	16cc\	16aa\
.	.	16aa\JJ	.	.	.	.	.	.	.	.	16cc\JJ	16aa\JJ
=96	=96	=96	=96	=96	=96	=96	=96	=96	=96	=96	=96	=96
!LO:TX:t=P:problem=mixed beam	!	!	!	!	!	!LO:SIC:s=-bit.	!	!LO:SIC:s=-bit.	!	!	!	!
8G\L	.	4gg\	.	2ryy	4g\	-bit	4b\	-bit	4g/	4dd\	4b\	8bb\L
8GG/	.	.	.	.	.	.	.	.	.	.	.	8gg\J
!	!	!	!	!	!	!	!	!LO:SIC:s=Pa-	!	!	!	!
8G\	.	8b\L	.	.	4B\	Pa-	4dd\	pa-	8g/L	8dd\L	8b\L	8dd\L
8B\J	.	8dd\J	.	.	.	.	.	.	8g/J	8dd\J	8dd\J	8g\J
=97	=97	=97	=97	=97	=97	=97	=97	=97	=97	=97	=97	=97
4c\	.	4ee\	.	2ryy	4c\	-ra-	4ee\	-ra-	4cc\	4ee\	4ee\	4ee\
8c\L	.	8ee\L	.	.	8c\	-tum	8ee\	-tum	4r	4r	8ee\L	16ee\LL
.	.	.	.	.	.	.	.	.	.	.	.	16ff#X\
!	!	!	!	!	!	!LO:SIC:s=cor	!	!	!	!	!	!
16B\L	.	16dd\L	.	.	16d\LL	Cor	16dd\LL	cor	.	.	16dd\L	16gg\
16A\JJ	.	16cc\JJ	.	.	16e\JJ	.	16cc\JJ	.	.	.	16cc\JJ	16aa\JJ
=98	=98	=98	=98	=98	=98	=98	=98	=98	=98	=98	=98	=98
!	!	!	!	!	!	!	!	!	!LO:N:vis=00	!LO:N:vis=00	!	!
4B\	.	4dd\	.	2ryy	4B\	e-	4dd\	e-	0r	0r	4dd\	4dd\
8B\L	.	8dd\L	.	.	8B\	-jus	8dd\	-jus	.	.	8dd\L	16dd\LL
.	.	.	.	.	.	.	.	.	.	.	.	16ee\
!	!	!	!	!	!	!LO:SIC:s=spe-	!	!LO:SIC:s=spe-	!	!	!	!
16A\L	.	16cc\L	.	.	16c\LL	Spe-	16cc\LL	Spe-	.	.	16cc\L	16ff#X\
16G\JJ	.	16b\JJ	.	.	16d\JJ	.	16b\JJ	.	.	.	16b\JJ	16gg\JJ
=99	=99	=99	=99	=99	=99	=99	=99	=99	=99	=99	=99	=99
4A\	.	4cc\	.	2ryy	4A\	-ra-	4cc\	-ra-	.	.	4cc\	4cc\
8A\L	.	8cc\L	.	.	8A\	-re	8cc\	-re	.	.	8cc\L	16cc\LL
.	.	.	.	.	.	.	.	.	.	.	.	16dd\
16G\L	.	16b\L	.	.	16B\LL	in	16b\LL	in	.	.	16b\L	16ee\
16F#X\JJ	.	16a\JJ	.	.	16c\JJ	.	16a\JJ	.	.	.	16a\JJ	16ff#X\JJ
!LO:LB:g=original	!	!	!	!	!	!	!	!	!	!	!	!
=100	=100	=100	=100	=100	=100	=100	=100	=100	=100	=100	=100	=100
4G\	.	4b\	.	2ryy	4G\	Do-	4b\	Do-	.	.	4b\	4b\
8G\L	.	8b\L	.	.	8G\L	.	8b\L	.	.	.	8b\L	16b\LL
.	.	.	.	.	.	.	.	.	.	.	.	16cc\
16F#X\L	.	16a\L	.	.	16A\L	.	16a\L	.	.	.	16a\L	16dd\
16E\JJ	.	16g\JJ	.	.	16B\JJ	.	16g\JJ	.	.	.	16g\JJ	16ee\JJ
!	!	!	!	!	!LO:LB:g=original	!	!LO:LB:g=original	!	!	!	!	!
=101	=101	=101	=101	=101	=101	=101	=101	=101	=101	=101	=101	=101
!LO:SIC:v:s=4F#\	!	!	!	!	!	!	!	!	!	!	!	!
4F\	.	4a/	.	2ryy	4F#X/	.	4a\	.	.	.	4a/	4a\
!LO:SIC:v:s=8F#\L	!	!	!	!	!	!	!	!	!	!	!	!
8F\L	.	8a/L	.	.	8F#/L	.	8a\L	.	.	.	8a/L	16a\LL
.	.	.	.	.	.	.	.	.	.	.	.	16b\
16E\L	.	16g/L	.	.	16G/L	.	16g\L	.	.	.	16g/L	16cc#X\
16D\JJ	.	16f#X/JJ	.	.	16A/JJ	.	16f#X\JJ	.	.	.	16f#X/JJ	16dd\JJ
!	!	!	!	!	!	!	!	!	!	!	!	!LO:LB:g=original
=102	=102	=102	=102	=102	=102	=102	=102	=102	=102	=102	=102	=102
!	!	!	!	!	!	!	!	!	!LO:N:vis=00	!LO:N:vis=00	!	!
4E\	.	4g/	.	2ryy	4c#X\	.	4g\	.	0r	0r	4g/	4g/
8E\L	.	8g/L	.	.	4e\	-mi-	4g\	-mi-	.	.	8g/L	16g/LL
.	.	.	.	.	.	.	.	.	.	.	.	16a/
16D\L	.	16f#X/L	.	.	.	.	.	.	.	.	16f#X/L	16b/
16C#X\JJ	.	16e/JJ	.	.	.	.	.	.	.	.	16e/JJ	16cc#X/JJ
=103	=103	=103	=103	=103	=103	=103	=103	=103	=103	=103	=103	=103
!	!	!LO:SIC:v:s=4f#/	!	!	!	!	!LO:SIC:v:s=4f#\	!	!	!	!LO:SIC:v:s=4f#/	!LO:TX:t=P:problem=mixed beam
4D\	.	4f/	.	2ryy	4d\	-no	4f\	-no	.	.	4f/	8dd\L
.	.	.	.	.	.	.	.	.	.	.	.	8d/J
!	!	!	!	!	!	!LO:SIC:s=con-	!	!	!	!	!	!
4r	.	8dd\L	.	.	8d\	Con-	4r	.	.	.	8dd\L	4r
.	.	8dd\J	.	.	8d\	-fir-	.	.	.	.	8dd\J	.
!	!	!	!	!	!	!	!	!	!	!	!LO:LB:g=original	!
=104	=104	=104	=104	=104	=104	=104	=104	=104	=104	=104	=104	=104
4G\	.	8b\L	.	2ryy	8B\	-ma-	4r	.	.	.	8b\L	4r
.	.	8g\J	.	.	8G\	-tum	.	.	.	.	8g\J	.
!	!	!	!	!	!	!	!	!LO:SIC:s=con-	!	!	!	!
4r	.	8g\L	.	.	8G\	eſt	8gg\	Con-	.	.	8g\L	8gg\L
!	!	!	!	!	!	!LO:SIC:s=cor	!	!	!	!	!	!
.	.	16a\L	.	.	16A\LL	Cor	8gg\	-fir-	.	.	16a\L	8gg\J
.	.	16b\JJ	.	.	16B\JJ	.	.	.	.	.	16b\JJ	.
!	!	!LO:LB:g=original	!	!	!	!	!	!	!	!	!	!
=105	=105	=105	=105	=105	=105	=105	=105	=105	=105	=105	=105	=105
!	!	!LO:TX:t=P:problem=mixed beam	!	!	!	!	!	!	!	!	!	!
4C/	.	8cc\L	.	2ryy	8c\	e-	8ee\	-ma-	.	.	8cc\L	8ee\L
.	.	8c/	.	.	8c\	-jus	8cc\	-tum	.	.	8cc\	8ccn\J
4r	.	8cc\	.	.	4c\	non	8cc\	eſt	.	.	8cc\	8cc\L
.	.	8cc\J	.	.	.	.	16dd\LL	cor	.	.	8cc\J	16dd\L
.	.	.	.	.	.	.	16ee\JJ	.	.	.	.	16ee\JJ
=106	=106	=106	=106	=106	=106	=106	=106	=106	=106	=106	=106	=106
!LO:SIC:s=4F	!	!	!	!	!	!LO:SIC:s=com-	!	!	!LO:N:vis=00	!LO:N:vis=00	!	!LO:TX:t=P:problem=mixed beam
4Fn\	.	8a/L	.	2ryy	8A\	co-	8ff\	e-	0r	0r	8a/L	8ffn\L
!	!	!	!	!	!	!	!	!	!	!	!LO:SIC:v:s=8f/J	!
.	.	8f/J	.	.	8F\	-mo-	8ff\	-jus	.	.	8f#X/J	8f/
!	!	!	!	!	!	!	!	!	!	!	!LO:SIC:v:s=8f/L	!
4r	.	8f/L	.	.	8F\	-ve-	4ff\	non	.	.	8f#/L	8ff\
.	.	16g/L	.	.	16G\LL	-bi-	.	.	.	.	16g/L	8ff\J
.	.	16a/JJ	.	.	16A\JJ	.	.	.	.	.	16a/JJ	.
!	!	!	!	!	!LO:LB:g=original	!	!	!	!	!	!	!
=107	=107	=107	=107	=107	=107	=107	=107	=107	=107	=107	=107	=107
!	!	!LO:TX:t=P:problem=mixed beam	!	!	!	!	!	!LO:SIC:s=com-	!	!	!	!LO:TX:t=P:problem=mixed beam
4BB/	.	8b\L	.	2ryy	4B\	-tur	8dd\	co(m)-	.	.	8b\L	8dd\L
.	.	8B/	.	.	.	.	8b\	-mo-	.	.	8b\	8d/J
4r	.	8b\	.	.	4B\	do-	8b\	-ve-	.	.	8b\	8b\L
.	.	8b\J	.	.	.	.	16cc\LL	-bi-	.	.	8b\J	16cc\L
.	.	.	.	.	.	.	16dd\JJ	.	.	.	.	16dd\JJ
=108	=108	=108	=108	=108	=108	=108	=108	=108	=108	=108	=108	=108
!	!	!	!	!	!	!	!	!	!	!	!	!LO:TX:t=P:problem=mixed beam
4E\	.	8g/L	.	2ryy	8G/	-nec	4ee\	-tur	.	.	8g/L	8ee\L
!	!	!	!	!	!	!LO:SIC:s=de-	!	!	!	!	!	!
.	.	8e/J	.	.	8E/	des-	.	.	.	.	8e/J	8e/
!	!	!	!	!	!	!LO:SIC:s=-spi-	!	!	!	!	!	!
4r	.	8e/L	.	.	8E/	-pi-	4ee\	do-	.	.	8e/L	8ee\
.	.	16f#X/L	.	.	16F#X/LL	-ci-	.	.	.	.	16f#X/L	8ee\J
.	.	16g/JJ	.	.	16G/JJ	.	.	.	.	.	16g/JJ	.
=109	=109	=109	=109	=109	=109	=109	=109	=109	=109	=109	=109	=109
4AA/	.	8a/L	.	2ryy	4A\	-at	8cc\	-nec	.	.	8a/L	8cc\L
.	.	8c/	.	.	.	.	8a\	de-	.	.	8a/	8cc\J
4r	.	8a/	.	.	8A\	i-	8a\	-ſpi-	.	.	8a/	8a\L
.	.	8a/J	.	.	8A\	-ni-	16b\LL	-ci-	.	.	8a/J	16b\L
.	.	.	.	.	.	.	16cc\JJ	.	.	.	.	16cc\JJ
=110	=110	=110	=110	=110	=110	=110	=110	=110	=110	=110	=110	=110
!	!	!	!	!	!	!	!	!	!	!	!	!LO:TX:t=P:problem=mixed beam
4D\	.	8f#X/L	.	2ryy	8F#X/	-mi-	4dd\	-at	2r	2r	8f#X/L	8dd\L
.	.	8d/J	.	.	8D/	-cos	.	.	.	.	8d/J	8d/
4r	.	8d/L	.	.	8D/L	su-	8dd\	i-	.	.	8d/L	8dd\
.	.	16e/L	.	.	16E/L	.	8dd\	-ni-	.	.	16e/L	8dd\J
.	.	16f#/JJ	.	.	16F#/JJ	.	.	.	.	.	16f#/JJ	.
!	!	!	!	!	!	!	!LO:LB:g=original	!	!	!	!	!
=111	=111	=111	=111	=111	=111	=111	=111	=111	=111	=111	=111	=111
4G\	.	4g/	.	2ryy	4G/	-os	8b\	-mi-	4r	4r	4g/	8b\L
.	.	.	.	.	.	.	8g\	-cos	.	.	.	8g\J
8G\L	.	16dd\LL	.	.	8B\	i-	8ff\	i-	8g/L	8dd\L	16dd\LL	16ff\LL
.	.	16dd\	.	.	.	.	.	.	.	.	16dd\	16ff\
8G\J	.	16dd\	.	.	8B\	-ni-	8ff\	-ni-	8g/J	8dd\J	16dd\	16ff\
.	.	16dd\JJ	.	.	.	.	.	.	.	.	16dd\JJ	16ff\JJ
!	!	!	!	!	!LO:LB:g=original	!	!	!	!	!	!	!
=112	=112	=112	=112	=112	=112	=112	=112	=112	=112	=112	=112	=112
4C/	.	4cc\	.	2ryy	8c\	-mi-	8ee\	-mi-	4cc\	4ee\	4cc\	8ee\L
.	.	.	.	.	8c\	-cos	8cc\	-cos	.	.	.	8cc\J
8C/L	.	16ee\LL	.	.	8B-X\	i-	8ee\	i-	8cc\L	8ee\L	16ee\LL	16gg\LL
.	.	16ee\	.	.	.	.	.	.	.	.	16ee\	16gg\
8C/J	.	16ee\	.	.	8B-\	-ni-	8ee\	-ni-	8cc\J	8ee\J	16ee\	16gg\
.	.	16ee\JJ	.	.	.	.	.	.	.	.	16ee\JJ	16gg\JJ
!	!	!	!	!	!	!	!	!	!LO:LB:g=original	!	!	!
=113	=113	=113	=113	=113	=113	=113	=113	=113	=113	=113	=113	=113
4F\	.	8cc\L	.	2ryy	8A\L	-mi-	8ff\L	-mi-	8cc\L	8ee\L	8cc\L	8aa\L
.	.	8dd\	.	.	8Bn\J	.	8dd\J	.	8g\	8dd\	8dd\	8bbn\
8E\L	.	8ee\	.	.	8c\L	-cos	8ee\L	-cos	8cc\	8ee\	8ee\	8ccc\
8F\J	.	8dd\J	.	.	8d\J	.	8ff\J	.	8dd\J	8ff\J	8dd\J	8ff\J
=114	=114	=114	=114	=114	=114	=114	=114	=114	=114	=114	=114	=114
!	!	!	!	!	!LO:SIC:s=(4c	!	!LO:SIC:s=(4ee	!LO:SIC:s=su-	!	!	!	!
4G\	.	4cc\	.	2ryy	4c\	ſu-	4ee\	Su-	4cc\	4ee\	4cc\	4ee\
!	!	!	!	!	!LO:SIC:s=4B)	!	!LO:SIC:s=4dd)	!	!	!	!	!
4GG/	.	4b\	.	.	4B\	.	4dd\	.	4g\	4dd\	4b\	4dd\
=115	=115	=115	=115	=115	=115	=115	=115	=115	=115	=115	=115	=115
!	!	!	!	!	!	!LO:SIC:s=-os.	!	!	!	!	!	!
4C/	.	4cc\	.	2ryy	4c\	-os	4cc\	-os.	4cc\	4ee\	4cc\	4cc\
!LO:SIC:s=4r	!	!	!	!	!	!	!	!	!	!	!	!LO:SIC:s=4r
4r;	.	4r	.	.	4r	.	4r	.	4r	4r	4r	4r;
!	!	!LO:MO:mod===	!	!	!	!	!	!	!	!LO:MO:mod===	!LO:MO:mod===	!
==	==	==;	==	==	==	==	==	==	==	==;	==;	==
*-	*-	*-	*-	*-	*-	*-	*-	*-	*-	*-	*-	*-
!!!system-decoration: [(ww)][(bras)][vox][(str)][klav]
!!!RDF**kern: > = above
!!!RDF**kern: < = below
!!!filter-modern: shed -e "s/LO:N:/LO:n:$1/L" | shed -e "s/^(\d+[\/\\]right)/$1yy/I" | shed -e "s/LO:DY:/LO:dy:$1/L" | shed -e "s/TX(.*):t=P:/tx$1:t=P:/LG" | shed -k -e "s/([^a-gA-Gn#X-])[<>]/$1/g" | sic -sq | modori -m | autostem -r | tie -s | humtr -p
!!!EED: Anna Matuszewska
!!!EEV: 2020-08-30
!!!EED-revision: Andrzej Kubiczek
!!!EEV-revision: 2025-03-04
!!!ENC-modern: Andrzej Kubiczek
!!!END-modern: 2025-03-04
